X: 26335
T: Men They Stand And Stay, The
R: reel
M: 4/4
K: Eminor
B2|B2 E2|E2 D2|EG B4 B2|A2 G2 E3 D E6 BA|
G6 BA|G2 G2 GABc|d4 e2 dd|d2 B2 AB c2|
B6 BA|G2 G2 GABc|d2 d2 e3 d|d2 B2 A2 G2|
A6 GA|B2 E2 E3 D|EG B4 B2|A2 G2 E3 D|E6||

